packages/smooth_app/assets/onboarding/reinvention.svg

<svg width="375" height="375" viewBox="0 0 375 375" fill="none" xmlns="http://www.w3.org/2000/svg">
    <g clip-path="url(#clip0_3346_4459)">
        <rect width="375" height="375" fill="#2D9CDB"/>
        <rect width="375" height="375" fill="#DFF4FF"/>
        <path d="M375 290.631C292 264.5 148.5 276 54.5 375L375 375V290.631Z" fill="#027E54"/>
        <path d="M57.4767 94C80.7041 94 97.5462 112.734 98.7798 133.22C112.841 137.948 123 151.082 123 166.621C123 186.116 107.03 202 87.4302 202H-2.43023C-23.1035 202 -38 187.892 -38 170.345C-38 156.546 -28.9304 143.179 -15.1839 139.444C-14.2879 128.664 -8.96919 120.362 -1.55436 115.936C5.60305 111.663 14.3919 110.922 22.3148 113.725C29.061 102.732 41.4068 94 57.4767 94Z" fill="white"/>
        <path d="M222.085 209.061C218.48 209.061 214.67 211.12 213.032 213.964L196.08 243.326C193.999 246.936 190.873 249 187.502 249C184.132 249 181.01 246.932 178.924 243.326L161.972 213.964C160.33 211.125 156.524 209.061 152.919 209.061C152.166 209.061 151.447 209.152 150.785 209.331L118.035 218.105C116.825 218.427 115.64 218.593 114.517 218.593C111.486 218.593 108.904 217.404 107.249 215.248C105.42 212.862 104.941 209.57 105.904 205.973L114.678 173.223C115.732 169.296 113.568 164.066 110.045 162.032L80.6826 145.08C77.0727 142.999 75.0087 139.873 75.0087 136.502C75.0087 133.132 77.0771 130.005 80.6826 127.924L110.045 110.972C113.568 108.938 115.732 103.709 114.678 99.7809L105.904 67.0309C104.941 63.4385 105.42 60.1421 107.249 57.7602C108.904 55.6004 111.486 54.4116 114.521 54.4116C115.645 54.4116 116.829 54.5771 118.04 54.8993L150.79 63.6736C151.456 63.8521 152.174 63.9436 152.923 63.9436C156.529 63.9436 160.339 61.8839 161.976 59.0404L178.92 29.6739C181.001 26.064 184.127 24 187.498 24C190.868 24 193.995 26.0684 196.076 29.6739L213.028 59.0361C214.67 61.8752 218.476 63.9392 222.085 63.9392C222.839 63.9392 223.553 63.8478 224.219 63.6693L256.969 54.895C258.18 54.5728 259.364 54.4073 260.488 54.4073C263.518 54.4073 266.1 55.5961 267.759 57.7515C269.588 60.1378 270.067 63.4298 269.105 67.0222L260.331 99.7722C259.277 103.7 261.441 108.925 264.964 110.963L294.326 127.92C297.936 130.001 300 133.127 300 136.498C300 139.868 297.932 142.99 294.322 145.076L264.96 162.028C261.437 164.062 259.273 169.291 260.326 173.219L269.101 205.969C270.063 209.562 269.588 212.858 267.755 215.24C266.1 217.4 263.518 218.588 260.483 218.588C259.36 218.588 258.175 218.423 256.965 218.101L224.215 209.326C223.549 209.152 222.83 209.061 222.081 209.061H222.085Z" fill="#FFBE00"/>
        <path d="M368.477 61C391.704 61 408.546 79.7337 409.78 100.22C423.841 104.948 434 118.082 434 133.621C434 153.116 418.03 169 398.43 169H308.57C287.897 169 273 154.892 273 137.345C273 123.546 282.07 110.179 295.816 106.444C296.712 95.6644 302.031 87.3616 309.446 82.9358C316.603 78.6631 325.392 77.9216 333.315 80.7246C340.061 69.7318 352.407 61 368.477 61Z" fill="white"/>
        <g filter="url(#filter0_d_3346_4459)">
            <path d="M227.605 80.2481L157.107 74.0803C143.974 72.9314 132.397 82.646 131.248 95.7785L125.08 166.277C123.931 179.409 133.646 190.987 146.779 192.135L217.277 198.303C230.409 199.452 241.987 189.738 243.135 176.605L249.303 106.107C250.452 92.9745 240.738 81.3971 227.605 80.2481Z" fill="#F5F5F5"/>
        </g>
        <path d="M153.093 132.909C154.743 114.045 171.375 100.089 190.239 101.739C209.103 103.389 223.059 120.021 221.409 138.886L153.093 132.909Z" fill="#FF8C14"/>
        <path d="M212.748 138.128C211.516 152.21 199.102 162.627 185.02 161.395C170.938 160.163 160.521 147.748 161.753 133.667L212.748 138.128Z" fill="white"/>
        <path d="M200.586 116.73C201.625 116.821 202.54 116.053 202.631 115.014C202.722 113.976 201.954 113.06 200.915 112.969C199.876 112.878 198.961 113.647 198.87 114.685C198.779 115.724 199.547 116.639 200.586 116.73Z" fill="#8C3C00"/>
        <path d="M208.996 125.934C210.035 126.025 210.951 125.257 211.041 124.218C211.132 123.18 210.364 122.264 209.325 122.173C208.287 122.082 207.371 122.85 207.28 123.889C207.19 124.928 207.958 125.843 208.996 125.934Z" fill="#8C3C00"/>
        <path d="M198.467 127.078C199.505 127.169 200.421 126.401 200.512 125.362C200.603 124.324 199.834 123.408 198.796 123.317C197.757 123.226 196.842 123.995 196.751 125.033C196.66 126.072 197.428 126.987 198.467 127.078Z" fill="#8C3C00"/>
        <path d="M168.074 164.301L160.739 178.257L168.431 182.305L175.828 168.229C178.492 169.173 181.317 169.798 184.262 170.055C203.097 171.703 219.761 157.72 221.409 138.886L212.748 138.128C211.518 152.188 199.08 162.625 185.02 161.395C170.96 160.164 160.523 147.726 161.753 133.666L153.093 132.909C151.971 145.735 158.102 157.552 168.074 164.301V164.301Z" fill="black"/>
        <path d="M205.866 85.8224C199.152 85.235 192.985 88.4631 189.498 93.7169C191.623 96.0717 193.123 98.9787 193.754 102.172C201.724 101.101 208.197 94.709 209.057 86.405C208.031 86.1228 206.961 85.9181 205.859 85.8217L205.866 85.8224Z" fill="#00641E"/>
        <path d="M177.866 87.9102C176.537 87.7939 175.23 87.8351 173.958 87.9976C175.45 95.5672 181.779 101.562 189.853 102.268C191.182 102.384 192.489 102.343 193.761 102.18C192.269 94.6108 185.939 88.6165 177.866 87.9102V87.9102Z" fill="#00961E"/>
        <path d="M303 375C231.391 280.731 123.5 265 0 280.73V375L303 375Z" fill="#009664"/>
    </g>
    <defs>
        <filter id="filter0_d_3346_4459" x="117.168" y="70.078" width="140.047" height="140.047" filterUnits="userSpaceOnUse" color-interpolation-filters="sRGB">
            <feFlood flood-opacity="0" result="BackgroundImageFix"/>
            <feColorMatrix in="SourceAlpha" type="matrix" values="0 0 0 0 0 0 0 0 0 0 0 0 0 0 0 0 0 0 127 0" result="hardAlpha"/>
            <feOffset dy="3.91"/>
            <feGaussianBlur stdDeviation="3.91"/>
            <feColorMatrix type="matrix" values="0 0 0 0 0 0 0 0 0 0 0 0 0 0 0 0 0 0 0.3 0"/>
            <feBlend mode="normal" in2="BackgroundImageFix" result="effect1_dropShadow_3346_4459"/>
            <feBlend mode="normal" in="SourceGraphic" in2="effect1_dropShadow_3346_4459" result="shape"/>
        </filter>
        <clipPath id="clip0_3346_4459">
            <rect width="375" height="375" fill="white"/>
        </clipPath>
    </defs>
</svg>

<svg width="375" height="375" fill="none" xmlns="http://www.w3.org/2000/svg"><g clip-path="url(#a)"><path fill="#2D9CDB" d="M0 0h375v375H0z"/><path fill="#DFF4FF" d="M0 0h375v375H0z"/><path d="M375 290.631C292 264.5 148.5 276 54.5 375H375v-84.369Z" fill="#027E54"/><path d="M57.477 94c23.227 0 40.07 18.734 41.303 39.22 14.061 4.728 24.22 17.862 24.22 33.401C123 186.116 107.03 202 87.43 202H-2.43C-23.104 202-38 187.892-38 170.345c0-13.799 9.07-27.166 22.816-30.901.896-10.78 6.215-19.082 13.63-23.508 7.157-4.273 15.946-5.014 23.869-2.211C29.06 102.732 41.407 94 57.477 94Z" fill="#fff"/><path d="M222.085 209.061c-3.605 0-7.415 2.059-9.053 4.903l-16.952 29.362c-2.081 3.61-5.207 5.674-8.578 5.674-3.37 0-6.492-2.068-8.578-5.674l-16.952-29.362c-1.642-2.839-5.448-4.903-9.053-4.903a8.19 8.19 0 0 0-2.134.27l-32.75 8.774c-1.21.322-2.395.488-3.518.488-3.031 0-5.613-1.189-7.268-3.345-1.829-2.386-2.308-5.678-1.345-9.275l8.774-32.75c1.054-3.927-1.11-9.157-4.633-11.191L80.683 145.08c-3.61-2.081-5.674-5.207-5.674-8.578 0-3.37 2.068-6.497 5.674-8.578l29.362-16.952c3.523-2.034 5.687-7.263 4.633-11.191l-8.774-32.75c-.963-3.593-.484-6.889 1.345-9.27 1.655-2.16 4.237-3.35 7.272-3.35 1.124 0 2.308.166 3.519.488l32.75 8.775a8.25 8.25 0 0 0 2.133.27c3.606 0 7.416-2.06 9.053-4.904l16.944-29.366c2.081-3.61 5.207-5.674 8.578-5.674 3.37 0 6.497 2.068 8.578 5.674l16.952 29.362c1.642 2.84 5.448 4.903 9.057 4.903.754 0 1.468-.091 2.134-.27l32.75-8.774c1.211-.322 2.395-.488 3.519-.488 3.03 0 5.612 1.19 7.271 3.345 1.829 2.386 2.308 5.678 1.346 9.27l-8.774 32.75c-1.054 3.928 1.11 9.153 4.633 11.191l29.362 16.957c3.61 2.081 5.674 5.207 5.674 8.578 0 3.37-2.068 6.492-5.678 8.578l-29.362 16.952c-3.523 2.034-5.687 7.263-4.634 11.191l8.775 32.75c.962 3.593.487 6.889-1.346 9.271-1.655 2.16-4.237 3.348-7.272 3.348-1.123 0-2.308-.165-3.518-.487l-32.75-8.775a8.458 8.458 0 0 0-2.134-.265h.004Z" fill="#FFBE00"/><path d="M368.477 61c23.227 0 40.069 18.734 41.303 39.22 14.061 4.728 24.22 17.862 24.22 33.401C434 153.116 418.03 169 398.43 169h-89.86c-20.673 0-35.57-14.108-35.57-31.655 0-13.799 9.07-27.166 22.816-30.901.896-10.78 6.215-19.082 13.63-23.508 7.157-4.273 15.946-5.014 23.869-2.211C340.061 69.732 352.407 61 368.477 61Z" fill="#fff"/><g filter="url(#b)"><path d="m227.605 80.248-70.498-6.168c-13.133-1.149-24.71 8.566-25.859 21.698l-6.168 70.499c-1.149 13.132 8.566 24.71 21.699 25.858l70.498 6.168c13.132 1.149 24.71-8.565 25.858-21.698l6.168-70.498c1.149-13.132-8.565-24.71-21.698-25.859Z" fill="#F5F5F5"/></g><path d="M153.093 132.909c1.65-18.864 18.282-32.82 37.146-31.17 18.864 1.65 32.82 18.282 31.17 37.147l-68.316-5.977Z" fill="#FF8C14"/><path d="M212.748 138.128c-1.232 14.082-13.646 24.499-27.728 23.267-14.082-1.232-24.499-13.647-23.267-27.728l50.995 4.461Z" fill="#fff"/><path d="M200.586 116.73a1.887 1.887 0 1 0 .33-3.76 1.887 1.887 0 0 0-.33 3.76ZM208.996 125.934a1.887 1.887 0 1 0 .329-3.761 1.888 1.888 0 0 0-.329 3.761ZM198.467 127.078a1.888 1.888 0 1 0 .329-3.761 1.888 1.888 0 0 0-.329 3.761Z" fill="#8C3C00"/><path d="m168.074 164.301-7.335 13.956 7.692 4.048 7.397-14.076a34.094 34.094 0 0 0 8.434 1.826c18.835 1.648 35.499-12.335 37.147-31.169l-8.661-.758c-1.23 14.06-13.668 24.497-27.728 23.267-14.06-1.231-24.497-13.669-23.267-27.729l-8.66-.757c-1.122 12.826 5.009 24.643 14.981 31.392Z" fill="#000"/><path d="M205.866 85.822c-6.714-.587-12.881 2.641-16.368 7.895a17.772 17.772 0 0 1 4.256 8.455c7.97-1.071 14.443-7.463 15.303-15.767a17.968 17.968 0 0 0-3.198-.583h.007Z" fill="#00641E"/><path d="M177.866 87.91a18.241 18.241 0 0 0-3.908.088c1.492 7.57 7.821 13.564 15.895 14.27 1.329.116 2.636.075 3.908-.088-1.492-7.57-7.822-13.564-15.895-14.27Z" fill="#00961E"/><path d="M303 375c-71.609-94.269-179.5-110-303-94.27V375h303Z" fill="#009664"/></g><defs><clipPath id="a"><path fill="#fff" d="M0 0h375v375H0z"/></clipPath><filter id="b" x="117.168" y="70.078" width="140.047" height="140.047" filterUnits="userSpaceOnUse" color-interpolation-filters="sRGB"><feFlood flood-opacity="0" result="BackgroundImageFix"/><feColorMatrix in="SourceAlpha" values="0 0 0 0 0 0 0 0 0 0 0 0 0 0 0 0 0 0 127 0" result="hardAlpha"/><feOffset dy="3.91"/><feGaussianBlur stdDeviation="3.91"/><feColorMatrix values="0 0 0 0 0 0 0 0 0 0 0 0 0 0 0 0 0 0 0.3 0"/><feBlend in2="BackgroundImageFix" result="effect1_dropShadow_3346_4459"/><feBlend in="SourceGraphic" in2="effect1_dropShadow_3346_4459" result="shape"/></filter></defs></svg>
